General/PH Ocean power.lrtemplate
s = {
	id = "CFBE22F2-F136-40B9-A58D-0FAF2DCBC217",
	internalName = "PH Ocean power",
	title = "PH Ocean power",
	type = "Develop",
	value = {
		settings = {
			AutoBrightness = false,
			AutoContrast = false,
			AutoExposure = false,
			AutoShadows = false,
			BlueHue = 0,
			BlueSaturation = 0,
			Brightness = 68,
			CameraProfile = "Adobe Standard",
			ChromaticAberrationB = 0,
			ChromaticAberrationR = 0,
			Clarity = 17,
			ColorNoiseReduction = 25,
			Contrast = 25,
			ConvertToGrayscale = false,
			Defringe = 0,
			EnableCalibration = true,
			EnableColorAdjustments = true,
			EnableDetail = true,
			EnableGrayscaleMix = true,
			EnableSplitToning = true,
			EnableVignettes = true,
			Exposure = -0.2,
			FillLight = 10,
			GreenHue = 0,
			GreenSaturation = 0,
			HighlightRecovery = 0,
			HueAdjustmentAqua = 0,
			HueAdjustmentBlue = 0,
			HueAdjustmentGreen = 0,
			HueAdjustmentMagenta = 0,
			HueAdjustmentOrange = 0,
			HueAdjustmentPurple = 0,
			HueAdjustmentRed = 0,
			HueAdjustmentYellow = 0,
			LuminanceAdjustmentAqua = 0,
			LuminanceAdjustmentBlue = 0,
			LuminanceAdjustmentGreen = 0,
			LuminanceAdjustmentMagenta = 0,
			LuminanceAdjustmentOrange = 0,
			LuminanceAdjustmentPurple = 0,
			LuminanceAdjustmentRed = 0,
			LuminanceAdjustmentYellow = 0,
			LuminanceSmoothing = 0,
			ParametricDarks = 10,
			ParametricHighlightSplit = 75,
			ParametricHighlights = 33,
			ParametricLights = 36,
			ParametricMidtoneSplit = 50,
			ParametricShadowSplit = 25,
			ParametricShadows = 0,
			PostCropVignetteAmount = 0,
			PostCropVignetteFeather = 50,
			PostCropVignetteMidpoint = 50,
			PostCropVignetteRoundness = 0,
			RedHue = 0,
			RedSaturation = 0,
			Saturation = 36,
			SaturationAdjustmentAqua = 0,
			SaturationAdjustmentBlue = 0,
			SaturationAdjustmentGreen = 0,
			SaturationAdjustmentMagenta = 0,
			SaturationAdjustmentOrange = 0,
			SaturationAdjustmentPurple = 0,
			SaturationAdjustmentRed = 0,
			SaturationAdjustmentYellow = 0,
			ShadowTint = 0,
			Shadows = 5,
			SharpenDetail = 25,
			SharpenEdgeMasking = 0,
			SharpenRadius = 1,
			Sharpness = 25,
			SplitToningBalance = 0,
			SplitToningHighlightHue = 0,
			SplitToningHighlightSaturation = 0,
			SplitToningShadowHue = 0,
			SplitToningShadowSaturation = 0,
			Temperature = 5214,
			Tint = 4,
			ToneCurve = {
				0,
				0,
				32,
				22,
				64,
				56,
				128,
				128,
				192,
				196,
				255,
				255,
			},
			ToneCurveName = "Medium Contrast",
			Vibrance = 0,
			VignetteAmount = 0,
			VignetteMidpoint = 50,
			WhiteBalance = "Custom",
		},
		uuid = "758DB261-42A2-4990-9DEE-7CB8FC31C66B",
	},
	version = 0,
}
