Weddings/Wedding Look Bright.lrtemplate
s = {
	id = "A6FF7D13-552F-4D61-9988-5F824C30C503",
	internalName = "Wedding Look Bright",
	title = "Wedding Look Bright",
	type = "Develop",
	value = {
		settings = {
			AutoBrightness = false,
			AutoContrast = false,
			AutoExposure = false,
			AutoShadows = false,
			Brightness = 97,
			Clarity = 24,
			Contrast = 25,
			ConvertToGrayscale = false,
			EnableColorAdjustments = true,
			EnableDetail = true,
			EnableGrayscaleMix = true,
			EnableSplitToning = true,
			EnableVignettes = true,
			Exposure = 1.56,
			FillLight = 3,
			HighlightRecovery = 0,
			HueAdjustmentAqua = 0,
			HueAdjustmentBlue = 0,
			HueAdjustmentGreen = 0,
			HueAdjustmentMagenta = 0,
			HueAdjustmentOrange = 0,
			HueAdjustmentPurple = 0,
			HueAdjustmentRed = 0,
			HueAdjustmentYellow = 0,
			LuminanceAdjustmentAqua = 0,
			LuminanceAdjustmentBlue = 0,
			LuminanceAdjustmentGreen = 0,
			LuminanceAdjustmentMagenta = 0,
			LuminanceAdjustmentOrange = 0,
			LuminanceAdjustmentPurple = 0,
			LuminanceAdjustmentRed = 0,
			LuminanceAdjustmentYellow = 0,
			ParametricDarks = 11,
			ParametricHighlightSplit = 75,
			ParametricHighlights = 8,
			ParametricLights = 15,
			ParametricMidtoneSplit = 50,
			ParametricShadowSplit = 25,
			ParametricShadows = -30,
			PostCropVignetteAmount = -19,
			PostCropVignetteFeather = 50,
			PostCropVignetteMidpoint = 50,
			PostCropVignetteRoundness = 0,
			Saturation = 0,
			SaturationAdjustmentAqua = 0,
			SaturationAdjustmentBlue = 0,
			SaturationAdjustmentGreen = 0,
			SaturationAdjustmentMagenta = 0,
			SaturationAdjustmentOrange = 0,
			SaturationAdjustmentPurple = 0,
			SaturationAdjustmentRed = 0,
			SaturationAdjustmentYellow = 0,
			Shadows = 5,
			SharpenDetail = 20,
			SharpenEdgeMasking = 70,
			SharpenRadius = 1.2,
			Sharpness = 35,
			SplitToningBalance = 6,
			SplitToningHighlightHue = 39,
			SplitToningHighlightSaturation = 7,
			SplitToningShadowHue = 39,
			SplitToningShadowSaturation = 27,
			ToneCurve = {
				0,
				0,
				32,
				16,
				64,
				50,
				128,
				128,
				192,
				202,
				255,
				255,
			},
			ToneCurveName = "Strong Contrast",
			Vibrance = 13,
			VignetteAmount = -81,
			VignetteMidpoint = 50,
			WhiteBalance = "As Shot",
		},
		uuid = "E0523675-6D19-4278-8AD4-DD4D0499A75A",
	},
	version = 0,
}
